Sweet-Rainbow/icons/micropad.svg

<?xml version="1.0" encoding="UTF-8" standalone="no"?>
<!-- Generator: Gravit.io -->

<svg
   xmlns:dc="http://purl.org/dc/elements/1.1/"
   xmlns:cc="http://creativecommons.org/ns#"
   xmlns:rdf="http://www.w3.org/1999/02/22-rdf-syntax-ns#"
   xmlns:svg="http://www.w3.org/2000/svg"
   xmlns="http://www.w3.org/2000/svg"
   xmlns:sodipodi="http://sodipodi.sourceforge.net/DTD/sodipodi-0.dtd"
   xmlns:inkscape="http://www.inkscape.org/namespaces/inkscape"
   style="isolation:isolate"
   viewBox="0 0 36 36"
   width="48"
   height="48"
   version="1.1"
   id="svg9"
   sodipodi:docname="micropad.svg"
   inkscape:version="0.92.4 (5da689c313, 2019-01-14)">
  <metadata
     id="metadata15">
    <rdf:RDF>
      <cc:Work
         rdf:about="">
        <dc:format>image/svg+xml</dc:format>
        <dc:type
           rdf:resource="http://purl.org/dc/dcmitype/StillImage" />
        <dc:title></dc:title>
      </cc:Work>
    </rdf:RDF>
  </metadata>
  <defs
     id="defs13" />
  <sodipodi:namedview
     pagecolor="#ffffff"
     bordercolor="#666666"
     borderopacity="1"
     objecttolerance="10"
     gridtolerance="10"
     guidetolerance="10"
     inkscape:pageopacity="0"
     inkscape:pageshadow="2"
     inkscape:window-width="640"
     inkscape:window-height="480"
     id="namedview11"
     showgrid="false"
     inkscape:zoom="29.365243"
     inkscape:cx="25.325443"
     inkscape:cy="32"
     inkscape:current-layer="svg9"
     units="px" />
  <linearGradient
     id="_lgradient_24"
     x1="0.13636364"
     y1="0.96590906"
     x2="0.81567883"
     y2="0.1369143"
     gradientTransform="matrix(44,0,0,44,2,2)"
     gradientUnits="userSpaceOnUse">
    <stop
       offset="0%"
       stop-opacity="1"
       style="stop-color:rgb(255,229,59)"
       id="stop2" />
    <stop
       offset="98.69565217391305%"
       stop-opacity="1"
       style="stop-color:rgb(255,0,91)"
       id="stop4" />
  </linearGradient>
  <g
     id="g826"
     transform="matrix(0.81818182,0,0,0.81818182,-1.6363637,-1.6363637)">
    <path
       id="path7"
       d="m 12,11.599 v 26.718 c 0,0.956 0.776,1.732 1.732,1.732 h 0.433 c 0.957,0 1.733,-0.776 1.733,-1.732 v -7.331 q 2.208,1.19 5.675,1.19 v 0 0 q 2.783,0 4.954,-1.032 v 0 0 q 2.171,-1.032 3.394,-2.975 v 0 h 0.216 l 0.297,1.817 c 0.154,0.944 1.016,1.71 1.923,1.71 v 0 C 33.264,31.696 34,30.92 34,29.963 V 9.732 C 34,8.776 33.224,8 32.268,8 H 31.75 c -0.956,0 -1.733,0.776 -1.733,1.732 v 9.488 0 q 0,5.111 -1.907,7.366 v 0 0 q -1.907,2.255 -6.034,2.255 v 0 0 q -3.119,0 -4.582,-1.584 v 0 0 q -1.463,-1.583 -1.463,-4.798 v 0 V 9.732 C 16.031,8.776 15.254,8 14.298,8 H 13.732 C 12.776,8 12,8.776 12,9.732 Z M 6,28 v 0 c 0,1.104 -0.896,2 -2,2 v 0 C 2.896,30 2,29.104 2,28 V 28 7 C 2,4.24 4.24,2 7,2 h 34 c 2.76,0 5,2.24 5,5 v 5 0 c 0,1.104 -0.896,2 -2,2 v 0 c -1.104,0 -2,-0.896 -2,-2 V 12 9 C 42,7.344 40.656,6 39,6 H 9 C 7.344,6 6,7.344 6,9 Z m 36,-8 v 0 c 0,-1.104 0.896,-2 2,-2 v 0 c 1.104,0 2,0.896 2,2 v 0 22 c 0,2.208 -1.792,4 -4,4 H 6 C 3.792,46 2,44.208 2,42 v -6 0 c 0,-1.104 0.896,-2 2,-2 v 0 c 1.104,0 2,0.896 2,2 v 0 3 c 0,1.656 1.344,3 3,3 h 30 c 1.656,0 3,-1.344 3,-3 z"
       inkscape:connector-curvature="0"
       style="fill:url(#_lgradient_24);fill-rule:evenodd" />
  </g>
</svg>

<?xml version="1.0" encoding="UTF-8" standalone="no"?><!-- Generator: Gravit.io --><svg xmlns="http://www.w3.org/2000/svg" xmlns:xlink="http://www.w3.org/1999/xlink" style="isolation:isolate" viewBox="0 0 48 48" width="48pt" height="48pt"><linearGradient id="_lgradient_24" x1="0.13636363636363635" y1="0.965909090909091" x2="0.8156788145774931" y2="0.13691429715658776" gradientTransform="matrix(44,0,0,44,2,2)" gradientUnits="userSpaceOnUse"><stop offset="0%" stop-opacity="1" style="stop-color:rgb(255,229,59)"/><stop offset="98.69565217391305%" stop-opacity="1" style="stop-color:rgb(255,0,91)"/></linearGradient><path d=" M 12 11.599 L 12 38.317 C 12 39.273 12.776 40.049 13.732 40.049 L 14.165 40.049 C 15.122 40.049 15.898 39.273 15.898 38.317 L 15.898 30.986 Q 18.106 32.176 21.573 32.176 L 21.573 32.176 L 21.573 32.176 Q 24.356 32.176 26.527 31.144 L 26.527 31.144 L 26.527 31.144 Q 28.698 30.112 29.921 28.169 L 29.921 28.169 L 30.137 28.169 L 30.434 29.986 C 30.588 30.93 31.45 31.696 32.357 31.696 L 32.357 31.696 C 33.264 31.696 34 30.92 34 29.963 L 34 9.732 C 34 8.776 33.224 8 32.268 8 L 31.75 8 C 30.794 8 30.017 8.776 30.017 9.732 L 30.017 19.22 L 30.017 19.22 Q 30.017 24.331 28.11 26.586 L 28.11 26.586 L 28.11 26.586 Q 26.203 28.841 22.076 28.841 L 22.076 28.841 L 22.076 28.841 Q 18.957 28.841 17.494 27.257 L 17.494 27.257 L 17.494 27.257 Q 16.031 25.674 16.031 22.459 L 16.031 22.459 L 16.031 9.732 C 16.031 8.776 15.254 8 14.298 8 L 13.732 8 C 12.776 8 12 8.776 12 9.732 L 12 11.599 L 12 11.599 Z  M 6 28 L 6 28 C 6 29.104 5.104 30 4 30 L 4 30 C 2.896 30 2 29.104 2 28 L 2 28 L 2 7 C 2 4.24 4.24 2 7 2 L 41 2 C 43.76 2 46 4.24 46 7 L 46 12 L 46 12 C 46 13.104 45.104 14 44 14 L 44 14 C 42.896 14 42 13.104 42 12 L 42 12 L 42 9 C 42 7.344 40.656 6 39 6 L 9 6 C 7.344 6 6 7.344 6 9 L 6 28 L 6 28 Z  M 42 20 L 42 20 C 42 18.896 42.896 18 44 18 L 44 18 C 45.104 18 46 18.896 46 20 L 46 20 L 46 42 C 46 44.208 44.208 46 42 46 L 6 46 C 3.792 46 2 44.208 2 42 L 2 36 L 2 36 C 2 34.896 2.896 34 4 34 L 4 34 C 5.104 34 6 34.896 6 36 L 6 36 L 6 39 C 6 40.656 7.344 42 9 42 L 39 42 C 40.656 42 42 40.656 42 39 L 42 20 Z " fill-rule="evenodd" fill="url(#_lgradient_24)"/></svg>
